X: 181
T:Lively Tim
% Nottingham Music Database
S:Trad, arr Phil Rowe
M:6/8
K:A
|:"E7"e|"A"a2A cBA|ecA cBA|"A"a2A cBA|"Bm"BcA "E"GFE|
"A"a2A cBA|"A"ecA cBA|"D"fga "Bm"ecA|"E7"dBG "A"A2::
"A"[_E_B]|"E"[E2B2]E GFE|"E"BGB dcB|"A"e2A cBA|cAc efg|
"D"agf "A"efg|"D"agf "A"ece|"D"fga "Bm"ecA|"E7"dBG "A"A2:|


